src/pos-icons/trending-down.svg

<svg height="24" viewBox="0 0 24 24" width="24" xmlns="http://www.w3.org/2000/svg"><path d="m16 18 2.29-2.29-4.88-4.88-4 4-7.41-7.42 1.41-1.41 6 6 4-4 6.3 6.29 2.29-2.29v6z"/></svg>

<?xml version="1.0" encoding="UTF-8"?><!DOCTYPE svg PUBLIC "-//W3C//DTD SVG 1.1//EN" "http://www.w3.org/Graphics/SVG/1.1/DTD/svg11.dtd"><svg xmlns="http://www.w3.org/2000/svg" xmlns:xlink="http://www.w3.org/1999/xlink" version="1.1" id="mdi-trending-down" width="24" height="24" viewBox="0 0 24 24"><path d="M16,18L18.29,15.71L13.41,10.83L9.41,14.83L2,7.41L3.41,6L9.41,12L13.41,8L19.71,14.29L22,12V18H16Z" /></svg>
